resources/images/winner-badge-third.svg

<svg viewBox="0 0 48 48" fill="none" xmlns="http://www.w3.org/2000/svg">
<path d="M24.0342 48C36.9497 48 47.4199 37.5298 47.4199 24.6142C47.4199 11.6987 36.9497 1.22852 24.0342 1.22852C11.1186 1.22852 0.648438 11.6987 0.648438 24.6142C0.648438 37.5298 11.1186 48 24.0342 48Z" fill="#FF8709"/>
<path d="M23.9917 45.4582C36.8839 45.4582 47.3351 35.282 47.3351 22.7291C47.3351 10.1762 36.8839 0 23.9917 0C11.0995 0 0.648315 10.1762 0.648315 22.7291C0.648315 35.282 11.0995 45.4582 23.9917 45.4582Z" fill="#FF9838"/>
<path d="M24.0781 40.7129C33.6244 40.7129 41.3633 32.974 41.3633 23.4277C41.3633 13.8814 33.6244 6.14258 24.0781 6.14258C14.5318 6.14258 6.79297 13.8814 6.79297 23.4277C6.79297 32.974 14.5318 40.7129 24.0781 40.7129Z" fill="#A2511A"/>
<path d="M23.9934 38.0862C33.4929 38.0862 41.1938 30.9354 41.1938 22.1144C41.1938 13.2934 33.4929 6.14258 23.9934 6.14258C14.4939 6.14258 6.79297 13.2934 6.79297 22.1144C6.79297 30.9354 14.4939 38.0862 23.9934 38.0862Z" fill="#BC672E"/>
<g filter="url(#filter0_b_23916_75053)">
<path d="M22.8764 29.3C22.5164 29.3 22.1364 29.2733 21.7364 29.22C21.3364 29.18 20.9497 29.12 20.5764 29.04C20.2031 28.96 19.8631 28.8733 19.5564 28.78C19.2497 28.6867 19.0097 28.6 18.8364 28.52L19.4164 26.04C19.7631 26.1867 20.2031 26.3467 20.7364 26.52C21.2831 26.68 21.9564 26.76 22.7564 26.76C23.6764 26.76 24.3497 26.5867 24.7764 26.24C25.2031 25.8933 25.4164 25.4267 25.4164 24.84C25.4164 24.48 25.3364 24.18 25.1764 23.94C25.0297 23.6867 24.8231 23.4867 24.5564 23.34C24.2897 23.18 23.9697 23.0733 23.5964 23.02C23.2364 22.9533 22.8497 22.92 22.4364 22.92H21.2764V20.52H22.5964C22.8897 20.52 23.1697 20.4933 23.4364 20.44C23.7164 20.3867 23.9631 20.3 24.1764 20.18C24.3897 20.0467 24.5564 19.8733 24.6764 19.66C24.8097 19.4333 24.8764 19.1533 24.8764 18.82C24.8764 18.5667 24.8231 18.3467 24.7164 18.16C24.6097 17.9733 24.4697 17.82 24.2964 17.7C24.1364 17.58 23.9431 17.4933 23.7164 17.44C23.5031 17.3733 23.2831 17.34 23.0564 17.34C22.4831 17.34 21.9497 17.4267 21.4564 17.6C20.9764 17.7733 20.5364 17.9867 20.1364 18.24L19.0764 16.06C19.2897 15.9267 19.5364 15.7867 19.8164 15.64C20.1097 15.4933 20.4297 15.36 20.7764 15.24C21.1231 15.12 21.4897 15.02 21.8764 14.94C22.2764 14.86 22.6964 14.82 23.1364 14.82C23.9497 14.82 24.6497 14.92 25.2364 15.12C25.8364 15.3067 26.3297 15.58 26.7164 15.94C27.1031 16.2867 27.3897 16.7 27.5764 17.18C27.7631 17.6467 27.8564 18.16 27.8564 18.72C27.8564 19.2667 27.7031 19.8 27.3964 20.32C27.0897 20.8267 26.6764 21.2133 26.1564 21.48C26.8764 21.7733 27.4297 22.2133 27.8164 22.8C28.2164 23.3733 28.4164 24.0667 28.4164 24.88C28.4164 25.52 28.3097 26.1133 28.0964 26.66C27.8831 27.1933 27.5497 27.66 27.0964 28.06C26.6431 28.4467 26.0631 28.7533 25.3564 28.98C24.6631 29.1933 23.8364 29.3 22.8764 29.3Z" fill="#FFE2C7"/>
</g>
<defs>
<filter id="filter0_b_23916_75053" x="4.83643" y="0.819824" width="37.58" height="42.48" filterUnits="userSpaceOnUse" color-interpolation-filters="sRGB">
<feFlood flood-opacity="0" result="BackgroundImageFix"/>
<feGaussianBlur in="BackgroundImageFix" stdDeviation="7"/>
<feComposite in2="SourceAlpha" operator="in" result="effect1_backgroundBlur_23916_75053"/>
<feBlend mode="normal" in="SourceGraphic" in2="effect1_backgroundBlur_23916_75053" result="shape"/>
</filter>
</defs>
</svg>

<svg viewBox="0 0 48 48" fill="none" xmlns="http://www.w3.org/2000/svg"><path d="M24.034 48C36.95 48 47.42 37.53 47.42 24.614 47.42 11.7 36.95 1.23 24.034 1.23 11.12 1.229.648 11.699.648 24.614.648 37.53 11.118 48 24.034 48Z" fill="#FF8709"/><path d="M23.992 45.458c12.892 0 23.343-10.176 23.343-22.729C47.335 10.176 36.884 0 23.992 0 11.099 0 .648 10.176.648 22.73c0 12.552 10.452 22.728 23.344 22.728Z" fill="#FF9838"/><path d="M24.078 40.713c9.546 0 17.285-7.739 17.285-17.285 0-9.547-7.739-17.285-17.285-17.285S6.793 13.88 6.793 23.428c0 9.546 7.739 17.285 17.285 17.285Z" fill="#A2511A"/><path d="M23.993 38.086c9.5 0 17.2-7.15 17.2-15.972 0-8.82-7.7-15.971-17.2-15.971s-17.2 7.15-17.2 15.971 7.7 15.972 17.2 15.972Z" fill="#BC672E"/><g filter="url(#filter0_b_23916_75053)"><path d="M22.876 29.3c-.36 0-.74-.027-1.14-.08-.4-.04-.786-.1-1.16-.18a12.57 12.57 0 0 1-1.02-.26 5.865 5.865 0 0 1-.72-.26l.58-2.48c.347.147.787.307 1.32.48.547.16 1.22.24 2.02.24.92 0 1.594-.173 2.02-.52.427-.347.64-.813.64-1.4 0-.36-.08-.66-.24-.9a1.58 1.58 0 0 0-.62-.6 2.549 2.549 0 0 0-.96-.32c-.36-.067-.746-.1-1.16-.1h-1.16v-2.4h1.32c.294 0 .574-.027.84-.08.28-.053.527-.14.74-.26.214-.133.38-.307.5-.52.134-.227.2-.507.2-.84a1.308 1.308 0 0 0-.58-1.12 1.542 1.542 0 0 0-.58-.26 2.198 2.198 0 0 0-.66-.1c-.573 0-1.106.087-1.6.26-.48.173-.92.387-1.32.64l-1.06-2.18c.214-.133.46-.273.74-.42.294-.147.614-.28.96-.4.347-.12.714-.22 1.1-.3.4-.08.82-.12 1.26-.12.814 0 1.514.1 2.1.3.6.187 1.094.46 1.48.82.387.347.674.76.86 1.24.187.467.28.98.28 1.54 0 .547-.153 1.08-.46 1.6-.306.507-.72.893-1.24 1.16.72.293 1.274.733 1.66 1.32.4.573.6 1.267.6 2.08 0 .64-.106 1.233-.32 1.78-.213.533-.546 1-1 1.4-.453.387-1.033.693-1.74.92-.693.213-1.52.32-2.48.32Z" fill="#FFE2C7"/></g><defs><filter id="filter0_b_23916_75053" x="4.83643" y="0.819824" width="37.58" height="42.48" filterUnits="userSpaceOnUse" color-interpolation-filters="sRGB"><feFlood flood-opacity="0" result="BackgroundImageFix"/><feGaussianBlur in="BackgroundImageFix" stdDeviation="7"/><feComposite in2="SourceAlpha" operator="in" result="effect1_backgroundBlur_23916_75053"/><feBlend mode="normal" in="SourceGraphic" in2="effect1_backgroundBlur_23916_75053" result="shape"/></filter></defs></svg>
